X: 1
T: Da Ness O' Soond
M: 4/4
L: 1/8
R: reel
K: Gmaj
DF | G2 dB cAFA | G2 DG B,GG,F | Ggfg edBG | c2 A2 A2 DF |
G2 dB cAFA | GBdg c2dc | BdBG ADFA | G2 B2 G2 DF |
G3A BABd | egdg edBA | G3A BGBd | eaag fddB |
c2ac B2gB | cBAG FDAF | Ggfg edBA | B2 G2 G2 ||
